X: 201217
T: Tom Fleming's
S: "Johnny O'Leary of Sliabh Luachra" (#343)
Z: B.Black
L: 1/8
M: 6/8
R: jig
K: D
D/E/FA d2e|dcA GFG|AFD =c3|ed^c AF/G/A|
DFA dzd|dcA GFG|Adc AGE|EDC D3 :|
d2c ded|cAG A2B|=cBc ed^c|Bec A2c|
dcd fed|cAG A/B/AG|Adc AGE|EDC D3 :|
